public/img/logo.svg

<svg width="258" height="160" viewBox="0 0 258 160" fill="none" xmlns="http://www.w3.org/2000/svg">
<path d="M100.945 23.6149L89.1691 0L69.2322 14.8176L88.4876 32.8718L100.945 23.6149Z" fill="#F2BA3E"/>
<path d="M120.342 10.0044L80.3111 59.1586L131.939 118.257L188.768 48.4755L120.342 10.0044ZM137.488 67.4211C131.477 61.4159 131.477 51.6778 137.488 45.6705C143.5 39.6653 153.248 39.6653 159.261 45.6705C165.273 51.6757 165.273 61.4137 159.261 67.4211C153.25 73.4263 143.502 73.4263 137.488 67.4211Z" fill="#F2BA3E"/>
<path d="M5.95187 118.307V102.037H0V93.5229H14.1774C19.8404 93.5229 23.9893 94.4444 26.624 96.2822C29.2563 98.1226 30.5737 100.69 30.5737 103.99C30.5737 107.098 28.5889 109.16 24.6218 110.173C28.5889 111.314 30.5737 113.376 30.5737 116.357C30.5737 119.973 29.1293 122.62 26.2455 124.301C23.3592 125.982 19.3374 126.821 14.1774 126.821H0V118.307H5.95187ZM28.4071 104.463C28.4071 102.877 25.5557 102.085 19.8578 102.085H8.11596V106.841H19.8578C25.5582 106.841 28.4071 106.049 28.4071 104.463ZM28.4071 115.881C28.4071 114.295 25.5557 113.503 19.8578 113.503H8.11596V118.259H19.8578C25.5582 118.259 28.4071 117.467 28.4071 115.881Z" fill="#C2422C"/>
<path d="M65.5279 125.989C64.4446 125.339 63.5605 124.49 62.8757 123.444C62.3701 122.874 62.1186 121.542 62.1186 119.447C62.1186 119.131 62.1361 118.797 62.1734 118.449C62.2083 118.1 62.2282 117.657 62.2282 117.116C62.2282 115.976 61.9294 115.127 61.3367 114.571C60.7415 114.016 59.9745 113.739 59.0381 113.739H49.7841V118.259H55.7359V126.821H41.6681V118.259H47.62V102.087H41.6681V93.5229H55.8455C59.5262 93.5229 62.5918 93.9588 65.0448 94.8304C67.4977 95.702 69.3107 96.8924 70.4836 98.399C71.6566 99.9056 72.2418 101.609 72.2418 103.514C72.2418 106.717 70.653 109.269 67.4803 111.172C65.6748 112.218 64.7758 113.074 64.7758 113.742C64.7758 114.788 65.0099 115.572 65.4781 116.098C65.9463 116.621 66.5414 116.882 67.2636 116.882C67.7318 116.882 68.8151 116.581 70.511 115.978C71.8458 115.408 72.8021 115.122 73.3799 115.122C73.8481 115.122 74.2092 115.281 74.4632 115.597C75.148 116.613 75.671 117.565 76.0321 118.451C76.3932 119.34 76.5725 120.1 76.5725 120.735C76.5725 122.891 75.915 124.47 74.5976 125.469C73.2803 126.467 71.4499 126.968 69.1065 126.968C67.809 126.968 66.6162 126.644 65.5354 125.992L65.5279 125.989ZM70.0727 104.463C70.0727 103.671 69.2783 103.076 67.692 102.68C66.1031 102.284 64.0486 102.085 61.5234 102.085H49.7816V106.841H61.5234C67.2238 106.841 70.0727 106.049 70.0727 104.463Z" fill="#C2422C"/>
<path d="M89.8235 118.259L99.5631 93.5229H103.513L113.252 118.259H120.935V126.821H106.867V118.259H110.926L109.412 114.359H101.62L100.106 118.259H104.706V126.821H84.4145V118.259H89.826H89.8235ZM105.515 104.51L102.377 112.454H108.655L105.517 104.51H105.515Z" fill="#C2422C"/>
<path d="M133.598 125.681C131.073 124.635 129.278 122.881 128.214 120.423C127.151 117.965 126.618 114.516 126.618 110.076C126.618 105.636 127.114 101.973 128.107 99.562C129.098 97.1514 130.822 95.4554 133.275 94.4718C135.728 93.4881 139.281 92.9975 143.933 92.9975C149.778 92.9975 153.999 94.0907 156.594 96.2797C157.603 97.1688 158.434 98.2546 159.084 99.5396C159.734 100.825 160.058 102.07 160.058 103.275H161.141C161.141 101.88 160.763 100.461 160.006 99.0166C159.249 97.5747 158.22 96.2972 156.92 95.1865V93.4283H163.413V108.176H156.92C156.92 104.752 152.41 103.038 143.393 103.038C139.568 103.038 136.935 103.103 135.494 103.228C133.688 103.417 132.318 103.721 131.382 104.132C130.443 104.545 129.776 105.203 129.38 106.107C128.981 107.011 128.785 108.335 128.785 110.079C128.785 112.076 129.171 113.615 129.948 114.693C130.722 115.772 131.922 116.516 133.546 116.93C135.17 117.343 137.369 117.547 140.148 117.547H143.664C147.452 117.547 150.607 117.246 153.133 116.643C155.658 116.04 156.92 114.755 156.92 112.791H163.413C163.413 116.247 162.755 119.031 161.438 121.138C160.12 123.247 158.073 124.794 155.297 125.775C152.517 126.759 148.839 127.249 144.257 127.249C139.675 127.249 136.121 126.726 133.598 125.681Z" fill="#C2422C"/>
<path d="M180.404 125.681C177.879 124.635 176.083 122.881 175.02 120.423C173.957 117.965 173.424 114.516 173.424 110.076C173.424 105.636 173.919 101.973 174.913 99.562C175.904 97.1514 177.627 95.4554 180.08 94.4718C182.533 93.4881 186.087 92.9975 190.739 92.9975C196.584 92.9975 200.805 94.0907 203.4 96.2797C204.408 97.1688 205.24 98.2546 205.89 99.5396C206.54 100.825 206.864 102.07 206.864 103.275H207.947C207.947 101.88 207.568 100.461 206.811 99.0166C206.054 97.5747 205.026 96.2972 203.726 95.1865V93.4283H210.218V108.176H203.726C203.726 104.752 199.216 103.038 190.198 103.038C186.373 103.038 183.741 103.103 182.299 103.228C180.494 103.417 179.124 103.721 178.188 104.132C177.249 104.545 176.581 105.203 176.185 106.107C175.787 107.011 175.59 108.335 175.59 110.079C175.59 112.076 175.976 113.615 176.753 114.693C177.528 115.772 178.728 116.516 180.352 116.93C181.975 117.343 184.174 117.547 186.954 117.547H190.47C194.258 117.547 197.413 117.246 199.938 116.643C202.463 116.04 203.726 114.755 203.726 112.791H210.218C210.218 116.247 209.561 119.031 208.243 121.138C206.926 123.247 204.879 124.794 202.102 125.775C199.323 126.759 195.645 127.249 191.063 127.249C186.48 127.249 182.927 126.726 180.404 125.681Z" fill="#C2422C"/>
<path d="M229.538 125.016C226.724 123.526 224.65 121.494 223.315 118.927C221.98 116.357 221.313 113.441 221.313 110.173C221.313 104.274 222.881 99.9455 226.019 97.1862C229.157 94.4269 233.523 93.0473 239.116 93.0473C243.337 93.0473 246.863 93.8019 249.695 95.306C252.526 96.8127 254.618 98.8572 255.973 101.442C257.325 104.027 258.002 106.936 258.002 110.171C258.002 116.103 256.434 120.431 253.296 123.158C250.158 125.885 245.755 127.249 240.092 127.249C235.871 127.249 232.355 126.505 229.541 125.013L229.538 125.016ZM253.537 115.478C255.071 114.225 255.836 112.457 255.836 110.173C255.836 107.89 254.944 106.004 253.159 104.797C251.373 103.591 249.072 102.989 246.261 102.989H233.002C229.72 102.989 227.312 103.624 225.778 104.891C224.244 106.159 223.479 107.92 223.479 110.171C223.479 112.549 224.371 114.342 226.159 115.547C227.944 116.753 230.225 117.355 233.005 117.355H246.263C249.583 117.355 252.008 116.73 253.54 115.475L253.537 115.478Z" fill="#C2422C"/>
<path d="M7.80216 151.738C9.67488 152.069 10.6112 153.112 10.6112 154.865C10.6112 157.615 8.71113 158.989 4.91338 158.989H0.371033V145.044H4.754C5.20475 145.044 5.63807 145.061 6.04897 145.093C6.45987 145.126 6.95545 145.22 7.5332 145.372C8.11096 145.524 8.60653 145.728 9.01744 145.98C9.42834 146.232 9.78446 146.605 10.0833 147.096C10.3821 147.586 10.5316 148.164 10.5316 148.829C10.5316 150.45 9.62259 151.419 7.80216 151.738ZM1.18786 147.335V150.602H4.55478C5.6032 150.602 6.36773 150.592 6.84587 150.572C7.32402 150.552 7.82955 150.492 8.35999 150.393C8.89043 150.293 9.24655 150.131 9.42585 149.905C9.60515 149.678 9.6948 149.374 9.6948 148.988C9.6948 148.789 9.66741 148.612 9.61511 148.46C9.56282 148.308 9.46818 148.174 9.3362 148.062C9.20421 147.95 9.06475 147.85 8.91782 147.763C8.77089 147.676 8.56918 147.611 8.31018 147.564C8.05119 147.517 7.81212 147.477 7.59297 147.444C7.37382 147.412 7.07498 147.387 6.69645 147.375C6.31793 147.362 5.98173 147.352 5.69036 147.345C5.399 147.337 5.02047 147.335 4.55478 147.335H1.18537H1.18786ZM4.25594 156.698C6.43497 156.698 7.90177 156.569 8.65883 156.31C9.41589 156.051 9.79442 155.57 9.79442 154.865C9.79442 154.4 9.68235 154.029 9.45573 153.75C9.22911 153.471 8.85806 153.262 8.34007 153.122C7.82208 152.983 7.26176 152.891 6.65661 152.843C6.05146 152.796 5.25207 152.774 4.25594 152.774H1.18537V156.698H4.25345H4.25594Z" fill="#C2422C"/>
<path d="M31.4702 149.088C31.4702 151.172 30.4816 152.487 28.5017 153.033L31.2909 158.989H30.0557L27.3263 153.232C26.9951 153.272 26.6216 153.292 26.2106 153.292H22.1265V158.989H21.3097V145.044H26.2106C26.6888 145.044 27.1146 145.061 27.4857 145.093C27.8568 145.126 28.31 145.22 28.8404 145.372C29.3709 145.524 29.8141 145.733 30.1653 146C30.5164 146.266 30.8227 146.665 31.0817 147.195C31.3407 147.726 31.4702 148.358 31.4702 149.088ZM26.111 151.04C27.8244 151.04 29.0172 150.928 29.6871 150.702C30.357 150.475 30.6932 149.965 30.6932 149.168C30.6932 148.371 30.362 147.875 29.6971 147.644C29.0322 147.412 27.8368 147.295 26.111 147.295H22.1265V151.04H26.111Z" fill="#C2422C"/>
<path d="M41.8474 158.989V145.044H51.1911V147.335H42.6642V150.821H50.972V152.993H42.6642V156.698H51.1911V158.989H41.8474Z" fill="#C2422C"/>
<path d="M72.8096 158.989L71.7736 156.101H62.8682L61.8322 158.989H60.9556L66.1156 145.044H68.5262L73.6862 158.989H72.8096ZM63.6651 153.889H70.9767L68.5461 147.175H66.0957L63.6651 153.889Z" fill="#C2422C"/>
<path d="M83.3063 158.989V145.044H87.2709C89.3951 145.044 91.0736 145.644 92.3013 146.847C93.5291 148.049 94.1442 149.785 94.1442 152.056C94.1442 154.328 93.5266 155.934 92.2914 157.157C91.0562 158.379 89.3827 158.989 87.2709 158.989H83.3063ZM84.1231 156.698H87.4502C88.9767 156.698 90.1771 156.519 91.0462 156.16C91.9153 155.802 92.513 155.301 92.8392 154.656C93.1655 154.011 93.3273 153.145 93.3273 152.056C93.3273 150.331 92.8866 149.11 92.0025 148.401C91.1184 147.691 89.6018 147.335 87.4502 147.335H84.1231V156.698Z" fill="#C2422C"/>
<path d="M123.41 159.229C121.525 159.229 120.014 158.591 118.878 157.316C117.742 156.041 117.175 154.26 117.175 151.977C117.175 149.693 117.75 147.942 118.898 146.687C120.046 145.432 121.55 144.805 123.41 144.805C124.912 144.805 126.217 145.223 127.325 146.06C128.433 146.896 128.989 148.059 128.989 149.546H128.172C128.172 148.896 127.694 148.323 126.738 147.833C125.781 147.342 124.646 147.096 123.331 147.096C122.546 147.096 121.847 147.178 121.229 147.345C120.611 147.512 120.116 147.741 119.745 148.032C119.374 148.323 119.06 148.63 118.808 148.948C118.557 149.267 118.378 149.628 118.27 150.034C118.163 150.44 118.091 150.784 118.051 151.07C118.011 151.357 117.992 151.658 117.992 151.977C117.992 152.363 118.019 152.734 118.071 153.092C118.123 153.451 118.258 153.879 118.47 154.377C118.681 154.875 118.968 155.301 119.326 155.652C119.685 156.004 120.21 156.307 120.9 156.559C121.59 156.81 122.402 156.937 123.331 156.937C124.633 156.937 125.764 156.671 126.728 156.141C127.691 155.61 128.172 155.045 128.172 154.447H128.989C128.989 155.75 128.414 156.87 127.265 157.814C126.117 158.758 124.832 159.229 123.41 159.229Z" fill="#C2422C"/>
<path d="M144.987 159.268C143.181 159.268 141.727 158.613 140.624 157.306C139.52 155.999 138.97 154.235 138.97 152.017C138.97 149.798 139.52 148.035 140.624 146.727C141.727 145.42 143.181 144.765 144.987 144.765C146.792 144.765 148.227 145.42 149.33 146.727C150.433 148.035 150.983 149.798 150.983 152.017C150.983 154.235 150.433 155.999 149.33 157.306C148.227 158.613 146.78 159.268 144.987 159.268ZM142.696 156.599C143.36 156.85 144.123 156.977 144.987 156.977C145.851 156.977 146.613 156.85 147.278 156.599C147.943 156.347 148.451 156.041 148.802 155.682C149.153 155.324 149.439 154.903 149.659 154.417C149.878 153.932 150.017 153.503 150.077 153.132C150.137 152.761 150.167 152.388 150.167 152.017C150.167 151.645 150.137 151.272 150.077 150.901C150.017 150.53 149.878 150.101 149.659 149.616C149.439 149.13 149.153 148.709 148.802 148.351C148.451 147.992 147.943 147.686 147.278 147.434C146.613 147.183 145.851 147.056 144.987 147.056C144.123 147.056 143.36 147.183 142.696 147.434C142.031 147.686 141.523 147.992 141.171 148.351C140.82 148.709 140.531 149.13 140.305 149.616C140.078 150.101 139.936 150.53 139.877 150.901C139.817 151.272 139.787 151.645 139.787 152.017C139.787 152.388 139.817 152.761 139.877 153.132C139.936 153.503 140.078 153.932 140.305 154.417C140.531 154.903 140.82 155.324 141.171 155.682C141.523 156.041 142.031 156.347 142.696 156.599Z" fill="#C2422C"/>
<path d="M161.781 158.989V145.044H162.578L167.937 154.547L173.317 145.044H174.094V158.989H173.277V149.387L168.695 157.714H167.2L162.598 149.387V158.989H161.781Z" fill="#C2422C"/>
<path d="M185.489 158.989V145.044H190.39C190.868 145.044 191.294 145.061 191.665 145.093C192.036 145.126 192.49 145.22 193.02 145.372C193.55 145.524 193.994 145.733 194.345 146C194.696 146.266 195.002 146.665 195.261 147.195C195.52 147.726 195.65 148.358 195.65 149.088C195.65 150.336 195.249 151.349 194.444 152.126C193.64 152.903 192.29 153.292 190.39 153.292H186.306V158.989H185.489ZM186.306 151.04H190.291C192.004 151.04 193.197 150.928 193.867 150.702C194.537 150.475 194.873 149.965 194.873 149.168C194.873 148.371 194.542 147.875 193.877 147.644C193.212 147.412 192.016 147.295 190.291 147.295H186.306V151.04Z" fill="#C2422C"/>
<path d="M214.835 158.989L213.799 156.101H204.894L203.858 158.989H202.981L208.141 145.044H210.552L215.712 158.989H214.835ZM205.691 153.889H213.002L210.572 147.175H208.121L205.691 153.889Z" fill="#C2422C"/>
<path d="M234.758 145.044H235.575V158.989H234.758L226.151 148.351V158.989H225.334V145.044H226.151L234.758 155.921V145.044Z" fill="#C2422C"/>
<path d="M254.919 145.044H257.23L251.732 153.63V158.989H250.277V153.63L245.416 145.044H246.293L250.437 152.315L254.919 145.044Z" fill="#C2422C"/>
</svg>

<svg width="258" height="160" fill="none" xmlns="http://www.w3.org/2000/svg"><path d="M100.945 23.615 89.169 0 69.232 14.818l19.256 18.054 12.457-9.257ZM120.342 10.004 80.312 59.16l51.627 59.098 56.829-69.782-68.426-38.47Zm17.146 57.417c-6.011-6.005-6.011-15.743 0-21.75 6.012-6.006 15.76-6.006 21.773 0 6.012 6.005 6.012 15.743 0 21.75-6.011 6.005-15.759 6.005-21.773 0Z" fill="#F2BA3E"/><path d="M5.952 118.307v-16.27H0v-8.514h14.177c5.663 0 9.812.921 12.447 2.76 2.632 1.84 3.95 4.407 3.95 7.707 0 3.108-1.985 5.17-5.952 6.183 3.967 1.141 5.952 3.203 5.952 6.184 0 3.616-1.445 6.263-4.329 7.944-2.886 1.681-6.908 2.52-12.068 2.52H0v-8.514h5.952Zm22.455-13.844c0-1.586-2.851-2.378-8.55-2.378H8.117v4.756h11.742c5.7 0 8.55-.792 8.55-2.378Zm0 11.418c0-1.586-2.851-2.378-8.55-2.378H8.117v4.756h11.742c5.7 0 8.55-.792 8.55-2.378ZM65.528 125.989a8.124 8.124 0 0 1-2.652-2.545c-.506-.57-.757-1.902-.757-3.997 0-.316.017-.65.054-.998.035-.349.055-.792.055-1.333 0-1.14-.299-1.989-.891-2.545-.596-.555-1.363-.832-2.299-.832h-9.254v4.52h5.952v8.562H41.668v-8.562h5.952v-16.172h-5.952v-8.564h14.178c3.68 0 6.746.436 9.199 1.307 2.453.872 4.266 2.062 5.439 3.569 1.173 1.507 1.758 3.21 1.758 5.115 0 3.203-1.589 5.755-4.762 7.658-1.805 1.046-2.704 1.902-2.704 2.57 0 1.046.234 1.83.702 2.356.468.523 1.063.784 1.786.784.468 0 1.551-.301 3.247-.904 1.335-.57 2.291-.856 2.869-.856.468 0 .83.159 1.083.475.685 1.016 1.208 1.968 1.57 2.854.36.889.54 1.649.54 2.284 0 2.156-.658 3.735-1.975 4.734-1.318.998-3.148 1.499-5.492 1.499-1.297 0-2.49-.324-3.57-.976l-.008-.003Zm4.545-21.526c0-.792-.795-1.387-2.381-1.783-1.589-.396-3.643-.595-6.169-.595H49.782v4.756h11.741c5.7 0 8.55-.792 8.55-2.378ZM89.823 118.259l9.74-24.736h3.95l9.739 24.736h7.683v8.562h-14.068v-8.562h4.059l-1.514-3.9h-7.792l-1.514 3.9h4.6v8.562H84.415v-8.562h5.411-.002Zm15.692-13.749-3.138 7.944h6.278l-3.138-7.944h-.002ZM133.598 125.681c-2.525-1.046-4.32-2.8-5.384-5.258-1.063-2.458-1.596-5.907-1.596-10.347 0-4.44.496-8.103 1.489-10.514.991-2.41 2.715-4.107 5.168-5.09 2.453-.984 6.006-1.474 10.658-1.474 5.845 0 10.066 1.093 12.661 3.282 1.009.889 1.84 1.975 2.49 3.26.65 1.285.974 2.53.974 3.735h1.083c0-1.395-.378-2.814-1.135-4.258-.757-1.442-1.786-2.72-3.086-3.83v-1.759h6.493v14.748h-6.493c0-3.424-4.51-5.138-13.527-5.138-3.825 0-6.458.065-7.899.19-1.806.189-3.176.493-4.112.904-.939.413-1.606 1.071-2.002 1.975-.399.904-.595 2.228-.595 3.972 0 1.997.386 3.536 1.163 4.614.774 1.079 1.974 1.823 3.598 2.237 1.624.413 3.823.617 6.602.617h3.516c3.788 0 6.943-.301 9.469-.904 2.525-.603 3.787-1.888 3.787-3.852h6.493c0 3.456-.658 6.24-1.975 8.347-1.318 2.109-3.365 3.656-6.141 4.637-2.78.984-6.458 1.474-11.04 1.474-4.582 0-8.136-.523-10.659-1.568ZM180.404 125.681c-2.525-1.046-4.321-2.8-5.384-5.258-1.063-2.458-1.596-5.907-1.596-10.347 0-4.44.495-8.103 1.489-10.514.991-2.41 2.714-4.107 5.167-5.09 2.453-.984 6.007-1.474 10.659-1.474 5.845 0 10.066 1.093 12.661 3.282 1.008.889 1.84 1.975 2.49 3.26.65 1.285.974 2.53.974 3.735h1.083c0-1.395-.379-2.814-1.136-4.258-.757-1.442-1.785-2.72-3.085-3.83v-1.759h6.492v14.748h-6.492c0-3.424-4.51-5.138-13.528-5.138-3.825 0-6.457.065-7.899.19-1.805.189-3.175.493-4.111.904-.939.413-1.607 1.071-2.003 1.975-.398.904-.595 2.228-.595 3.972 0 1.997.386 3.536 1.163 4.614.775 1.079 1.975 1.823 3.599 2.237 1.623.413 3.822.617 6.602.617h3.516c3.788 0 6.943-.301 9.468-.904 2.525-.603 3.788-1.888 3.788-3.852h6.492c0 3.456-.657 6.24-1.975 8.347-1.317 2.109-3.364 3.656-6.141 4.637-2.779.984-6.457 1.474-11.039 1.474-4.583 0-8.136-.523-10.659-1.568ZM229.538 125.016c-2.814-1.49-4.888-3.522-6.223-6.089-1.335-2.57-2.002-5.486-2.002-8.754 0-5.899 1.568-10.228 4.706-12.987 3.138-2.76 7.504-4.139 13.097-4.139 4.221 0 7.747.755 10.579 2.259 2.831 1.507 4.923 3.551 6.278 6.136 1.352 2.585 2.029 5.494 2.029 8.729 0 5.932-1.568 10.26-4.706 12.987-3.138 2.727-7.541 4.091-13.204 4.091-4.221 0-7.737-.744-10.551-2.236l-.003.003Zm23.999-9.538c1.534-1.253 2.299-3.021 2.299-5.305 0-2.283-.892-4.169-2.677-5.376-1.786-1.206-4.087-1.808-6.898-1.808h-13.259c-3.282 0-5.69.635-7.224 1.902-1.534 1.268-2.299 3.029-2.299 5.28 0 2.378.892 4.171 2.68 5.376 1.785 1.206 4.066 1.808 6.846 1.808h13.258c3.32 0 5.745-.625 7.277-1.88l-.003.003ZM7.802 151.738c1.873.331 2.81 1.374 2.81 3.127 0 2.75-1.9 4.124-5.699 4.124H.371v-13.945h4.383c.45 0 .884.017 1.295.049.41.033.906.127 1.484.279a5.518 5.518 0 0 1 1.484.608c.411.252.767.625 1.066 1.116.3.49.449 1.068.449 1.733 0 1.621-.91 2.59-2.73 2.909Zm-6.614-4.403v3.267h3.367c1.048 0 1.813-.01 2.29-.03.479-.02.985-.08 1.515-.179.53-.1.887-.262 1.066-.488.18-.227.269-.531.269-.917 0-.199-.028-.376-.08-.528a.909.909 0 0 0-.279-.398 3.042 3.042 0 0 0-.418-.299c-.147-.087-.349-.152-.608-.199a24.324 24.324 0 0 0-.717-.12 8.239 8.239 0 0 0-.897-.069 98.911 98.911 0 0 0-1.006-.03 44.49 44.49 0 0 0-1.135-.01h-3.37.003Zm3.068 9.363c2.179 0 3.646-.129 4.403-.388.757-.259 1.135-.74 1.135-1.445 0-.465-.112-.836-.338-1.115-.227-.279-.598-.488-1.116-.628a9.341 9.341 0 0 0-1.683-.279 32.55 32.55 0 0 0-2.401-.069h-3.07v3.924H4.255ZM31.47 149.088c0 2.084-.988 3.399-2.968 3.945l2.789 5.956h-1.235l-2.73-5.757c-.33.04-.704.06-1.115.06h-4.084v5.697h-.817v-13.945h4.9c.479 0 .905.017 1.276.049.37.033.824.127 1.354.279.53.152.974.361 1.325.628.351.266.658.665.917 1.195.259.531.388 1.163.388 1.893Zm-5.359 1.952c1.713 0 2.906-.112 3.576-.338.67-.227 1.006-.737 1.006-1.534s-.331-1.293-.996-1.524c-.665-.232-1.86-.349-3.586-.349h-3.985v3.745h3.985ZM41.847 158.989v-13.945h9.344v2.291h-8.527v3.486h8.308v2.172h-8.308v3.705h8.527v2.291h-9.344ZM72.81 158.989l-1.036-2.888h-8.906l-1.036 2.888h-.876l5.16-13.945h2.41l5.16 13.945h-.876Zm-9.145-5.1h7.312l-2.43-6.714h-2.451l-2.43 6.714ZM83.306 158.989v-13.945h3.965c2.124 0 3.803.6 5.03 1.803 1.228 1.202 1.843 2.938 1.843 5.209 0 2.272-.617 3.878-1.853 5.101-1.235 1.222-2.908 1.832-5.02 1.832h-3.965Zm.817-2.291h3.327c1.527 0 2.727-.179 3.596-.538.87-.358 1.467-.859 1.793-1.504.326-.645.488-1.511.488-2.6 0-1.725-.44-2.946-1.325-3.655-.884-.71-2.4-1.066-4.552-1.066h-3.327v9.363ZM123.41 159.229c-1.885 0-3.396-.638-4.532-1.913-1.136-1.275-1.703-3.056-1.703-5.339 0-2.284.575-4.035 1.723-5.29 1.148-1.255 2.652-1.882 4.512-1.882 1.502 0 2.807.418 3.915 1.255 1.108.836 1.664 1.999 1.664 3.486h-.817c0-.65-.478-1.223-1.434-1.713-.957-.491-2.092-.737-3.407-.737-.785 0-1.484.082-2.102.249-.618.167-1.113.396-1.484.687a5.595 5.595 0 0 0-.937.916c-.251.319-.43.68-.538 1.086-.107.406-.179.75-.219 1.036-.04.287-.059.588-.059.907 0 .386.027.757.079 1.115.052.359.187.787.399 1.285.211.498.498.924.856 1.275.359.352.884.655 1.574.907.69.251 1.502.378 2.431.378 1.302 0 2.433-.266 3.397-.796.963-.531 1.444-1.096 1.444-1.694h.817c0 1.303-.575 2.423-1.724 3.367-1.148.944-2.433 1.415-3.855 1.415ZM144.987 159.268c-1.806 0-3.26-.655-4.363-1.962-1.104-1.307-1.654-3.071-1.654-5.289 0-2.219.55-3.982 1.654-5.29 1.103-1.307 2.557-1.962 4.363-1.962 1.805 0 3.24.655 4.343 1.962 1.103 1.308 1.653 3.071 1.653 5.29 0 2.218-.55 3.982-1.653 5.289-1.103 1.307-2.55 1.962-4.343 1.962Zm-2.291-2.669c.664.251 1.427.378 2.291.378.864 0 1.626-.127 2.291-.378.665-.252 1.173-.558 1.524-.917a4.35 4.35 0 0 0 .857-1.265c.219-.485.358-.914.418-1.285a6.986 6.986 0 0 0 0-2.231c-.06-.371-.199-.8-.418-1.285a4.35 4.35 0 0 0-.857-1.265c-.351-.359-.859-.665-1.524-.917-.665-.251-1.427-.378-2.291-.378-.864 0-1.627.127-2.291.378-.665.252-1.173.558-1.525.917-.351.358-.64.779-.866 1.265-.227.485-.369.914-.428 1.285a6.989 6.989 0 0 0 0 2.231c.059.371.201.8.428 1.285.226.486.515.907.866 1.265.352.359.86.665 1.525.917ZM161.781 158.989v-13.945h.797l5.359 9.503 5.38-9.503h.777v13.945h-.817v-9.602l-4.582 8.327H167.2l-4.602-8.327v9.602h-.817ZM185.489 158.989v-13.945h4.901c.478 0 .904.017 1.275.049.371.033.825.127 1.355.279.53.152.974.361 1.325.628.351.266.657.665.916 1.195.259.531.389 1.163.389 1.893 0 1.248-.401 2.261-1.206 3.038-.804.777-2.154 1.166-4.054 1.166h-4.084v5.697h-.817Zm.817-7.949h3.985c1.713 0 2.906-.112 3.576-.338.67-.227 1.006-.737 1.006-1.534s-.331-1.293-.996-1.524c-.665-.232-1.861-.349-3.586-.349h-3.985v3.745ZM214.835 158.989l-1.036-2.888h-8.905l-1.036 2.888h-.877l5.16-13.945h2.411l5.16 13.945h-.877Zm-9.144-5.1h7.311l-2.43-6.714h-2.451l-2.43 6.714ZM234.758 145.044h.817v13.945h-.817l-8.607-10.638v10.638h-.817v-13.945h.817l8.607 10.877v-10.877ZM254.919 145.044h2.311l-5.498 8.586v5.359h-1.455v-5.359l-4.861-8.586h.877l4.144 7.271 4.482-7.271Z" fill="#C2422C"/></svg>
